!!!COM:	Busnoys, Antoine
!!!CDT:	~1430///-1492/11/06
!!!OTL:	C'est bien malheur
!!!AGN:	Song; Chanson
!!!SCT:	Bus3012
!!!SCA:	Bus3012
!!!voices:	3
**kern	**kern	**kern
*staff3	*staff2	*staff1
*Ivox	*Ivox	*Ivox
*I"Contra	*I"Tenor	*I"Superius
*I'C	*I'T	*I'S
*clefF4	*clefGv2	*clefG2
*k[b-]	*k[b-]	*k[b-]
*M3/1	*M3/1	*M3/1
*met(O)	*met(O)	*met(O)
=1-	=1-	=1-
!!LO:TX:Z=12:t=Rondeau
0GG	1d	1.d
.	2B-	.
.	2G	2e
1D	1A	1f
=2	=2	=2
0GG	0G	2g
.	.	2a
.	.	1b-
2.AA	2c	1a
.	2d	.
4BB-	.	.
=3	=3	=3
1C	1e	1g
1D	2d	2f
.	1d	2d
1AA	.	1e
.	2c	.
=4	=4	=4
2r	1.f	2d
1D	.	2.a
.	.	4b-
2C	2e	2.cc
2.F	2d	.
.	.	4b-
.	4c	4a
4G	4B-	4g
=5	=5	=5
0D	1A	0f
.	1r	.
[1F	1D	1r
=6	=6	=6
1F]	0D	1f
1F	.	1f
1C	1E	1g
=7	=7	=7
1r	1D	1a
0GG	0G	1b-
.	.	2b-
.	.	2b-
=8	=8	=8
1r	2F	2.a
.	2D	.
.	.	4f
2C	2E	2g
1F	1D	2.a
.	.	4b-
2D	2F	4a
.	.	8gL
.	.	8fJ
=9	=9	=9
2C	2G	2e
2AA	2A	2.f
1BB-	1D	.
.	.	4g
.	.	4f
.	.	8eL
.	.	8dJ
1AA	1E	2.c#i
.	.	4Bni
=10	=10	=10
2r	0.D	1d
2.A	.	.
.	.	1r
4G	.	.
2.F	.	.
.	.	1f
4D	.	.
2F	.	.
=11	=11	=11
1C	1r	2.e
.	.	4c
1BB-	1f	1d
1C	2.e	1A
.	4c	.
=12	=12	=12
2BB-	1d	2r
2GG	.	2B-
1FF	1A	2c
.	.	4B-
.	.	4A
1BB-	2r	1G
.	2B-	.
=13	=13	=13
1AA	2c	2A
.	4B-	2c
.	4A	.
2r	1G	1B-
2E	.	.
2F	2A	2A
2A	2c	[2a
=14	=14	=14
1E	1B-	2a]
.	.	2g
2.F	2A	2a
.	1d	4g
4G	.	4f
1A	.	1e
.	2c#i	.
=15	=15	=15
[0.DNy	1dNy	0dNy
.	1r	.
.	1d	1r
=16	=16	=16
0D]	0f	2A
.	.	2B-
.	.	2A
.	.	1d
1AA	1e	.
.	.	2c#i
=17	=17	=17
2r	1.f	2d
1D	.	2.A
.	.	4B-
2C	2e	2c
1GG	1d	1B-
=18	=18	=18
1r	1.e	1A
1AA	.	2r
.	2c	1a
1D	2A	.
.	2B-	2g
=19	=19	=19
1C	1c	1e
1BB-	1d	2f
.	.	4e
.	.	4d
[1AA	[1e	1c
=20	=20	=20
1AA]	1e]	1r
1r	2c	2A
.	2d	2B-
1AA	2c	2A
.	[2A	[2c
=21	=21	=21
2C	2A]	2c]
2BB-	2B-	2d
2.AA	2c	2c
.	2A	1f
4BB-	.	.
1C	1G	.
.	.	2e
=22	=22	=22
2D	2F	2f
1GG	2G	2.e
.	1D	.
.	.	4d
2BB-	.	1d
1AA	1E	.
.	.	2c#i
=23	=23	=23
1D	2D	2d
.	1A	2.f
1AA	.	.
.	.	4e
.	2c	1a
2r	1Bni	.
2E	.	2g
=24	=24	=24
2F	2A	2cc
2G	2G	2.bni
1A	1c	.
.	.	4a
.	.	1a
1E	1Bni	.
.	.	2g#i
=25	=25	=25
0.AAl	0.Al	0.al
==	==	==
*-	*-	*-
!!!RDF**kern: l=long note in original notation
!!!RDF**kern: i=editorial accidental
!!!RDF**kern: N=signum congruentiae
!!!ENC:	Chris Gage 04-02-2015
!!!END:	2015/05/01/
!!!EED:	Jesse Rodin
!!!EEV:	2015/05/10/
!!!ONB:	Translated from MusicXML and edited on 2015/05/10/ by Craig Sapp
!!muse2ps: C^@{COM}^i2I150v95,95,150Q16c80
